X: 42029
T: Walts Trefforest
R: waltz
M: 3/4
K: Gmajor
|:D2|"G" G2 GBGB|G2 GBGB|G2 GDGB|edc BAG|
"D" F2 FDFA|F2 FDFA|d^cd B=cA|"G" G4:|
|:dc|"G" B2 c2 d2|"C" e4 cB|"D" A2 B2 c2|"G" d4 BA|
"Em" G2 A2 B2|"C" c2 d2 e2|"D" ded cBA|"G" G4:|
|:D2|"G" G2 GDGB|"Am" BA A3 G|"D" F2 FDFA|"G" AG G3 D|
"G" G2 GDGB|"Am" BA A3 G|"D" F2 FDFA|"D" G4:|

